X:132
M:2/4
L:1/8
K:Bb
|:F|D/E/F/G/ FB|A/B/c/d/ ce|dc/B/ cB/A/|BFDB,|D/E/F/G/ FB|A/B/c/d/ ce|dc/B/ FA|(B2 B):|

